docs/img/app-oc-reliability.svg

<?xml version="1.0" encoding="UTF-8"?>
<svg width="60" height="40" version="1.1" viewBox="0 0 60 40" xmlns="http://www.w3.org/2000/svg" xmlns:cc="http://creativecommons.org/ns#" xmlns:dc="http://purl.org/dc/elements/1.1/" xmlns:rdf="http://www.w3.org/1999/02/22-rdf-syntax-ns#">
 <metadata>
  <rdf:RDF>
   <cc:Work rdf:about="">
    <dc:format>image/svg+xml</dc:format>
    <dc:type rdf:resource="http://purl.org/dc/dcmitype/StillImage"/>
   </cc:Work>
  </rdf:RDF>
 </metadata>
 <mask id="a" fill="#ffffff">
  <path d="m0 0h313.3v159.86h-313.3z" fill="#fff" fill-rule="evenodd"/>
 </mask>
 <mask id="b" fill="#ffffff">
  <path d="m0 0h313.3v159.86h-313.3z" fill="#fff" fill-rule="evenodd"/>
 </mask>
 <g transform="matrix(.49527 0 0 .49527 5.0758 3.2126)">
  <g fill="#a00c0c">
   <polygon class="st0" transform="matrix(1.6152 0 0 1.6152 -24.584 -106.93)" points="9 99.9 30.6 112.3 52.2 99.9 52.2 75 30.6 62.5 9 75"/>
   <path class="st0" d="m69.72 49.413 25.308 14.568 25.185-14.568v-29.012l-25.185-14.568-25.308 14.568zm25.308 17.901-28.148-16.173v-32.468l28.024-16.173 28.024 16.173v32.468z" stroke-width="1.2345"/>
   <path class="st0" d="m100.58 104.21 25.308 14.568 25.185-14.568v-29.012l-25.185-14.568-25.308 14.568zm25.308 17.901-28.148-16.173v-32.468l28.024-16.173 28.024 16.173v32.468z" stroke-width="1.2345"/>
   <polygon class="st0" transform="matrix(1.2345 0 0 1.2345 26.14 -17.499)" points="30.6 112.3 52.2 99.9 52.2 75 30.6 62.5 9 75 9 99.9"/>
  </g>
  <g transform="matrix(.11939 0 0 .11939 -4.7043 4.2866)" fill="#fff" fill-rule="evenodd">
   <g id="performance" fill="#fff" fill-rule="nonzero">
    <g id="Group" transform="translate(80,84)">
     <path id="Shape" d="m299.7 197c9.8 2.1 19.4 4.2 29.6 6.4-5.9 27.1-17.7 50.7-35.5 71.3-28 32.4-63.5 51.1-106 56.2-82 9.9-161.9-47.4-177.6-127.8 9.6-2.1 19.3-4.2 28.6-6.2 22.2 68.3 67.2 106.5 140.1 103.7 59.5-2.3 107.7-46.8 120.8-103.6z"/>
     <path d="m249.5 96.2c-0.6 1.1-1.1 2.3-1.8 3.3-18.1 26.3-36.2 52.7-54.5 79-8.1 11.6-19.5 15.8-31.6 12.2-10.6-3.2-18.3-12.4-19.4-23.1-1.2-11.8 3.9-21.8 14.6-27.2 25.8-12.8 51.7-25.4 77.6-38 4.8-2.3 9.5-4.6 14.3-6.9 0.2 0.1 0.5 0.4 0.8 0.7z"/>
     <path d="m289 106.4c-12 0.1-21.7-9.3-21.9-21.2-0.2-12.1 9.6-21.9 21.8-21.8 11.9 0 21.6 9.6 21.6 21.5 0.1 11.9-9.5 21.4-21.5 21.5z"/>
     <path d="m257.8 38.2c0.2 11.8-9.5 21.7-21.3 21.9-12 0.2-22.1-9.7-22.1-21.7 0-11.9 9.7-21.5 21.6-21.7 11.8 0 21.6 9.7 21.8 21.5z"/>
     <path d="m21.9 172.6c-12 0-21.6-9.6-21.7-21.5 0-11.9 9.6-21.6 21.5-21.7 12.1-0.1 22 9.8 21.9 21.8 0 11.9-9.7 21.4-21.7 21.4z"/>
     <path d="m25.3 84.6c0.5-11.9 10.5-21.4 22.2-21 11.9 0.4 21.5 10.5 21.2 22.1-0.3 12.1-10.6 21.9-22.5 21.3s-21.4-10.7-20.9-22.4z"/>
     <path d="m167.7 0.2c12.1 0 21.5 9.3 21.7 21.3 0.1 12.2-9.5 21.8-21.8 21.7-12-0.1-21.4-9.6-21.5-21.6 0-11.8 9.7-21.4 21.6-21.4z"/>
     <path d="m121.1 39c0 11.9-9.7 21.4-21.7 21.3s-21.4-9.6-21.4-21.6c0-12.1 9.4-21.5 21.5-21.5 12.3-0.1 21.6 9.3 21.6 21.8z"/>
     <path d="m313.8 172.2c-11.7 0-21.6-10.1-21.5-21.7 0.1-11.9 9.8-21.5 21.7-21.5s21.7 9.7 21.7 21.4c0.1 12-9.8 21.8-21.9 21.8z"/>
    </g>
    <path d="m249.5 35.3c29 0 57.1 5.7 83.5 16.8 25.5 10.8 48.5 26.3 68.2 46s35.2 42.7 46 68.2c11.2 26.4 16.8 54.5 16.8 83.5s-5.7 57.1-16.8 83.5c-10.8 25.5-26.3 48.5-46 68.2s-42.7 35.2-68.2 46c-26.4 11.2-54.5 16.8-83.5 16.8s-57.1-5.7-83.5-16.8c-25.5-10.8-48.5-26.3-68.2-46s-35.2-42.7-46-68.2c-11.2-26.4-16.8-54.5-16.8-83.5s5.7-57.1 16.8-83.5c10.8-25.5 26.3-48.5 46-68.2s42.7-35.2 68.2-46c26.4-11.2 54.5-16.8 83.5-16.8zm0-35c-137.8 0-249.5 111.7-249.5 249.5s111.7 249.5 249.5 249.5 249.5-111.7 249.5-249.5-111.7-249.5-249.5-249.5z"/>
   </g>
  </g>
 </g>
</svg>

<?xml version="1.0" encoding="UTF-8" standalone="no"?>
<svg
   xmlns:dc="http://purl.org/dc/elements/1.1/"
   xmlns:cc="http://creativecommons.org/ns#"
   xmlns:rdf="http://www.w3.org/1999/02/22-rdf-syntax-ns#"
   xmlns:svg="http://www.w3.org/2000/svg"
   xmlns="http://www.w3.org/2000/svg"
   xmlns:sodipodi="http://sodipodi.sourceforge.net/DTD/sodipodi-0.dtd"
   xmlns:inkscape="http://www.inkscape.org/namespaces/inkscape"
   width="40"
   height="40"
   version="1.1"
   viewBox="0 0 40 40"
   id="svg45"
   sodipodi:docname="app-oc-reliability.svg"
   inkscape:version="1.0.2 (e86c870879, 2021-01-15)">
  <defs
     id="defs49" />
  <sodipodi:namedview
     pagecolor="#ffffff"
     bordercolor="#666666"
     borderopacity="1"
     objecttolerance="10"
     gridtolerance="10"
     guidetolerance="10"
     inkscape:pageopacity="0"
     inkscape:pageshadow="2"
     inkscape:window-width="1920"
     inkscape:window-height="1016"
     id="namedview47"
     showgrid="false"
     inkscape:zoom="3.4957592"
     inkscape:cx="49.22237"
     inkscape:cy="42.170938"
     inkscape:window-x="0"
     inkscape:window-y="0"
     inkscape:window-maximized="1"
     inkscape:current-layer="g18" />
  <metadata
     id="metadata2">
    <rdf:RDF>
      <cc:Work
         rdf:about="">
        <dc:format>image/svg+xml</dc:format>
        <dc:type
           rdf:resource="http://purl.org/dc/dcmitype/StillImage" />
        <dc:title></dc:title>
      </cc:Work>
    </rdf:RDF>
  </metadata>
  <mask
     id="a"
     fill="#ffffff">
    <path
       d="M 0,0 H 313.3 V 159.86 H 0 Z"
       fill="#ffffff"
       fill-rule="evenodd"
       id="path4" />
  </mask>
  <mask
     id="b"
     fill="#ffffff">
    <path
       d="M 0,0 H 313.3 V 159.86 H 0 Z"
       fill="#ffffff"
       fill-rule="evenodd"
       id="path7" />
  </mask>
  <g
     transform="matrix(0.49527,0,0,0.49527,5.0758,3.2126)"
     id="g43">
    <g
       fill="#a00c0c"
       id="g18">
      <polygon
         class="st0"
         transform="matrix(1.6152,0,0,1.6152,-20.545799,-106.93)"
         points="52.2,99.9 52.2,75 30.6,62.5 9,75 9,99.9 30.6,112.3 "
         id="polygon10" />
    </g>
    <g
       transform="matrix(0.11939,0,0,0.11939,-0.66609861,4.2866)"
       fill="#ffffff"
       fill-rule="evenodd"
       id="g41">
      <g
         id="performance"
         fill="#ffffff"
         fill-rule="nonzero">
        <g
           id="Group"
           transform="translate(80,84)">
          <path
             id="Shape"
             d="m 299.7,197 c 9.8,2.1 19.4,4.2 29.6,6.4 -5.9,27.1 -17.7,50.7 -35.5,71.3 -28,32.4 -63.5,51.1 -106,56.2 -82,9.9 -161.9,-47.4 -177.6,-127.8 9.6,-2.1 19.3,-4.2 28.6,-6.2 C 61,265.2 106,303.4 178.9,300.6 238.4,298.3 286.6,253.8 299.7,197 Z" />
          <path
             d="m 249.5,96.2 c -0.6,1.1 -1.1,2.3 -1.8,3.3 -18.1,26.3 -36.2,52.7 -54.5,79 -8.1,11.6 -19.5,15.8 -31.6,12.2 -10.6,-3.2 -18.3,-12.4 -19.4,-23.1 -1.2,-11.8 3.9,-21.8 14.6,-27.2 25.8,-12.8 51.7,-25.4 77.6,-38 4.8,-2.3 9.5,-4.6 14.3,-6.9 0.2,0.1 0.5,0.4 0.8,0.7 z"
             id="path21" />
          <path
             d="m 289,106.4 c -12,0.1 -21.7,-9.3 -21.9,-21.2 -0.2,-12.1 9.6,-21.9 21.8,-21.8 11.9,0 21.6,9.6 21.6,21.5 0.1,11.9 -9.5,21.4 -21.5,21.5 z"
             id="path23" />
          <path
             d="m 257.8,38.2 c 0.2,11.8 -9.5,21.7 -21.3,21.9 -12,0.2 -22.1,-9.7 -22.1,-21.7 0,-11.9 9.7,-21.5 21.6,-21.7 11.8,0 21.6,9.7 21.8,21.5 z"
             id="path25" />
          <path
             d="m 21.9,172.6 c -12,0 -21.6,-9.6 -21.7,-21.5 0,-11.9 9.6,-21.6 21.5,-21.7 12.1,-0.1 22,9.8 21.9,21.8 0,11.9 -9.7,21.4 -21.7,21.4 z"
             id="path27" />
          <path
             d="M 25.3,84.6 C 25.8,72.7 35.8,63.2 47.5,63.6 59.4,64 69,74.1 68.7,85.7 68.4,97.8 58.1,107.6 46.2,107 34.3,106.4 24.8,96.3 25.3,84.6 Z"
             id="path29" />
          <path
             d="m 167.7,0.2 c 12.1,0 21.5,9.3 21.7,21.3 0.1,12.2 -9.5,21.8 -21.8,21.7 -12,-0.1 -21.4,-9.6 -21.5,-21.6 0,-11.8 9.7,-21.4 21.6,-21.4 z"
             id="path31" />
          <path
             d="m 121.1,39 c 0,11.9 -9.7,21.4 -21.7,21.3 C 87.4,60.2 78,50.7 78,38.7 78,26.6 87.4,17.2 99.5,17.2 c 12.3,-0.1 21.6,9.3 21.6,21.8 z"
             id="path33" />
          <path
             d="m 313.8,172.2 c -11.7,0 -21.6,-10.1 -21.5,-21.7 0.1,-11.9 9.8,-21.5 21.7,-21.5 11.9,0 21.7,9.7 21.7,21.4 0.1,12 -9.8,21.8 -21.9,21.8 z"
             id="path35" />
        </g>
        <path
           d="m 249.5,35.3 c 29,0 57.1,5.7 83.5,16.8 25.5,10.8 48.5,26.3 68.2,46 19.7,19.7 35.2,42.7 46,68.2 11.2,26.4 16.8,54.5 16.8,83.5 0,29 -5.7,57.1 -16.8,83.5 -10.8,25.5 -26.3,48.5 -46,68.2 -19.7,19.7 -42.7,35.2 -68.2,46 -26.4,11.2 -54.5,16.8 -83.5,16.8 -29,0 -57.1,-5.7 -83.5,-16.8 -25.5,-10.8 -48.5,-26.3 -68.2,-46 C 78.1,381.8 62.6,358.8 51.8,333.3 40.6,306.9 35,278.8 35,249.8 c 0,-29 5.7,-57.1 16.8,-83.5 10.8,-25.5 26.3,-48.5 46,-68.2 19.7,-19.7 42.7,-35.2 68.2,-46 26.4,-11.2 54.5,-16.8 83.5,-16.8 z m 0,-35 C 111.7,0.3 0,112 0,249.8 0,387.6 111.7,499.3 249.5,499.3 387.3,499.3 499,387.6 499,249.8 499,112 387.3,0.3 249.5,0.3 Z"
           id="path38" />
      </g>
    </g>
  </g>
</svg>
